X:9
T:Rowan Tree
C:Traditional
M:4/4
Q:1/4=56
K:D
e2 |
{/g}A3/2B/2|{/GdG}c3{/d}c1{/gcd}c2B2|{/gcd}c1e3{/A}e2a2|{/fg}f3e1{/g}f2a2|{/fg}f2e2{/A}e2{/g}A3/2B/2|!
{/GdG}c3{/d}c1{/gcd}c2B2|{/gcd}c1e3{/g}f3e1|{/gef}e1c3{/gBd}B3{/G}A1|{/g}A4{/GAG}A3||!
e1 |{/A}e3a1{/g}a3g1|{/a}g2f2{/e}f2{/ag}a2|{/ef}e3f1 {/g}f1e1 {/g}d1c1|{/gcd}c4{/gBd}B2 A3/2B/2|!
{/GdG}c3{/d}c1{/gcd}c2B2|{/gcd}c1e3{/g}f3e1|{/gef}e1c3{/gBd}B3{/G}A1|{/g}A4{/GAG}A2|]!

